X:49
T: Der betruegerische Freier
N: Q0042C
O: Mitteleuropa, Deutschland (BRD) , Rheinland, Siebengebirge
R: Ballade, Braut - Werbung, Betrug; tragisch
M: 2/4
L: 1/16
K: A
E2 | A3B=c2B2 | A2G2A2
B2 | =c3de2d2 | =c4z2
c2 | B3=cd2B2 | =c2e2e4 |
A3cB2A2 | G2F2E2
B2 | =c2c2B2B2 | =c3de2
d2 | =c2A2B3B | A4z2

@@@ Tune index: 785
